X:78
T:Kiss My Wife and Welcome. LIT.078
M:12/8
Q:3/8=115
L:1/8
B:Wm. Litten MS, 1802
Z:Village Music Project 2017 Anne Wride
K:D
EFE BAG FDF AGF | EFE BAG E3B3 | EFE BAG FDF AGF | B/c/dB AGF  E3B3 :|
|: B2c d2e d2B AFD |B2c d2e fdB fdB | B2c d2e dcB AFA | B/c/dB AGF E3B3 :|

